X:262
T:Kitchen Girl
C:Traditional
N:Transcribed by Kim Davis Arranged by Kim Davis
R:bluegrass
L:1/8
Q:1/4=220
M:4/4
K:A
z8 |: "A"Ac ea "G"=g4 | "A"ef ed =c^c A2 | "A"e2 ef =gf g^g | "E7"a=g eg e4 | 
"A"Ac ea "G"=g4 | "A"ef ed =c^c A2 | "A"=ga gf "G"ef ed |1 c2 A2 A4 :|2 c2 A2 A2 AB | 
|: "Am"=c2 Ac BA =GB | AB A=G E2 EG | A2 B2 =c2 d2 | "E7"e2 A2 A2 AB | "Am"=cB Ac BA =GB | 
AB A=G EG AB | =c2 Ac "E7"BA =GB |1 A2 AA A2 AB :|2 A2 AA A4 | z8 | 


